X: 156
T:Bonny Lasses. JC.155
M:2/4
L:1/8
Q:400
S:John Clare,Poet,Helpstone (1793-1864)
R:Reel
O:England
A:Northamptonshire
N:
Z:vmp.P. Headford
K:G
BG cA|dB eg|dB GB|dB A2|BG cA|dB eg|ag eg|dB G2:|!
|:af ge|fd eA|af Bc|d2d2|af ge|fd eA|af ge|Bc "D.C."d2:|]
